public/mascots/dropout/bear-donda-256x256.svg

<svg xmlns="http://www.w3.org/2000/svg" width="256" height="256" viewBox="0 0 256 256"><defs><linearGradient id="a" x1="0%" x2="100%" y1="0%" y2="100%"><stop offset="0%" style="stop-color:#8b4513"/><stop offset="100%" style="stop-color:#654321"/></linearGradient><filter id="b" width="140%" height="140%" x="-20%" y="-20%"><feDropShadow dx="3" dy="3" flood-opacity=".4" stdDeviation="3"/></filter></defs><ellipse cx="128" cy="240" opacity=".1" rx="50" ry="10"/><circle cx="80" cy="64" r="32" fill="url(#a)"/><circle cx="176" cy="64" r="32" fill="url(#a)"/><ellipse cx="128" cy="96" fill="url(#a)" rx="64" ry="56"/><g filter="url(#b)"><path fill="#1a1a1a" d="M64 64q64-32 128 0 16 32 0 64-64 32-128 0-16-32 0-64"/></g><ellipse cx="128" cy="112" fill="#2a2a2a" rx="24" ry="16"/><ellipse cx="128" cy="104" rx="10" ry="8"/><circle cx="104" cy="88" fill="#f44"/><circle cx="105" cy="87" r="2" fill="#fff"/><circle cx="152" cy="88" fill="#f44"/><circle cx="151" cy="87" r="2" fill="#fff"/><path fill="#1a1a1a" d="M80 144q0-24 48-32 48 8 48 32 0 64-48 80-48-16-48-80"/><path stroke="#333" stroke-width="3" d="M128 128v80"/><path fill="#333" d="M112 160h32v16h-32z"/><path fill="#1a1a1a" d="M80 160q-16 16-8 32t24 0M176 160q16 16 8 32t-24 0"/><circle cx="80" cy="200" r="10" fill="#8b4513"/><circle cx="176" cy="200" r="10" fill="#8b4513"/></svg>

<svg xmlns="http://www.w3.org/2000/svg" viewBox="0 0 256 256" width="256" height="256">
  <defs>
    <linearGradient id="donBearBrown256" x1="0%" y1="0%" x2="100%" y2="100%">
      <stop offset="0%" style="stop-color:#8B4513"/>
      <stop offset="100%" style="stop-color:#654321"/>
    </linearGradient>
    <filter id="donShadow256" x="-20%" y="-20%" width="140%" height="140%">
      <feDropShadow dx="3" dy="3" stdDeviation="3" flood-opacity="0.4"/>
    </filter>
  </defs>
  <ellipse cx="128" cy="240" rx="50" ry="10" fill="#000" opacity="0.1"/>
  <circle cx="80" cy="64" r="32" fill="url(#donBearBrown256)"/>
  <circle cx="176" cy="64" r="32" fill="url(#donBearBrown256)"/>
  <ellipse cx="128" cy="96" rx="64" ry="56" fill="url(#donBearBrown256)"/>
  <g filter="url(#donShadow256)">
    <path d="M64 64 Q128 32 192 64 Q208 96 192 128 Q128 160 64 128 Q48 96 64 64Z" fill="#1a1a1a"/>
  </g>
  <ellipse cx="128" cy="112" rx="24" ry="16" fill="#2a2a2a"/>
  <ellipse cx="128" cy="104" rx="10" ry="8" fill="#000"/>
  <circle cx="104" cy="88" rx="6" fill="#FF4444"/>
  <circle cx="105" cy="87" r="2" fill="#FFF"/>
  <circle cx="152" cy="88" rx="6" fill="#FF4444"/>
  <circle cx="151" cy="87" r="2" fill="#FFF"/>
  <path d="M80 144 Q80 120 128 112 Q176 120 176 144 Q176 208 128 224 Q80 208 80 144Z" fill="#1a1a1a"/>
  <line x1="128" y1="128" x2="128" y2="208" stroke="#333" stroke-width="3"/>
  <rect x="112" y="160" width="32" height="16" fill="#333"/>
  <path d="M80 160 Q64 176 72 192 Q80 208 96 192" fill="#1a1a1a"/>
  <path d="M176 160 Q192 176 184 192 Q176 208 160 192" fill="#1a1a1a"/>
  <circle cx="80" cy="200" r="10" fill="#8B4513"/>
  <circle cx="176" cy="200" r="10" fill="#8B4513"/>
</svg>
